pro/src/icons/stroke-date.svg

<svg width="48" height="48" viewBox="0 0 48 48" fill="none" xmlns="http://www.w3.org/2000/svg">
    <g id="icon">
        <path fill-rule="evenodd" clip-rule="evenodd" d="M32.2767 21.0435C32.6968 21.1719 32.9839 21.5601 32.9839 22V30.88H35.1012C35.6528 30.88 36.1 31.3277 36.1 31.88C36.1 32.4322 35.6528 32.88 35.1012 32.88H32.9839V36.82C32.9839 37.3722 32.5367 37.82 31.9851 37.82C31.4335 37.82 30.9864 37.3722 30.9864 36.82V32.88H25.3434C24.9743 32.88 24.6353 32.6761 24.4618 32.3499C24.2884 32.0236 24.3088 31.6282 24.5149 31.3216L31.1566 21.4416C31.4019 21.0767 31.8565 20.9151 32.2767 21.0435ZM30.9864 30.88V25.2766L27.2196 30.88H30.9864Z" fill="currentColor"/>
        <path d="M22.1516 22.8754C20.5915 19.3478 15.5698 19.4745 14.1576 23.0418L13.6961 24.2271C13.4958 24.7416 13.75 25.3214 14.2639 25.522C14.7778 25.7226 15.3569 25.468 15.5572 24.9535L16.0155 23.7763C16.7817 21.8464 19.4873 21.7936 20.3245 23.6837C20.656 24.4404 20.5755 25.2999 20.1098 25.968L20.1083 25.97L12.8075 36.5C12.5955 36.8057 12.5706 37.204 12.7429 37.5338C12.9152 37.8636 13.2562 38.0703 13.6279 38.0703H22.2971C22.8487 38.0703 23.2958 37.6226 23.2958 37.0703C23.2958 36.518 22.8487 36.0703 22.2971 36.0703H15.5371L21.7478 27.1126L21.7486 27.1115C22.6202 25.8601 22.7594 24.2607 22.1528 22.8781L22.1516 22.8754Z" fill="currentColor"/>
        <path fill-rule="evenodd" clip-rule="evenodd" d="M19.0013 7H28.9688C28.9688 4.78772 30.7543 3 32.9638 3C35.1733 3 36.9588 4.78772 36.9588 7H39.9551C42.1595 7 43.9601 8.77871 43.9998 10.9819L44 11.0019L43.9501 36.8939C44.0034 40.7959 40.8612 44 36.9588 44H10.9913C7.1338 44 4 40.8623 4 37V11C4 8.78772 5.78548 7 7.99501 7H11.0113C11.0113 4.78772 12.7967 3 15.0063 3C17.2158 3 19.0013 4.78772 19.0013 7ZM32.9638 5C31.8575 5 30.9663 5.89228 30.9663 7V7.79993C30.9794 7.86457 30.9863 7.93148 30.9863 8C30.9863 8.06852 30.9794 8.13543 30.9663 8.20007V9C30.9663 10.1077 31.8575 11 32.9638 11C33.5154 11 33.9625 11.4477 33.9625 12C33.9625 12.5523 33.5154 13 32.9638 13C30.7543 13 28.9688 11.2123 28.9688 9H16.2447C15.6931 9 15.246 8.55228 15.246 8C15.246 7.44772 15.6931 7 16.2447 7H17.0038C17.0038 5.89228 16.1126 5 15.0063 5C13.8999 5 13.0088 5.89228 13.0088 7V9C13.0088 10.1077 13.8999 11 15.0063 11C15.5579 11 16.005 11.4477 16.005 12C16.005 12.5523 15.5579 13 15.0063 13C12.7967 13 11.0113 11.2123 11.0113 9H7.99501C6.88867 9 5.9975 9.89228 5.9975 11V15H36.9788C37.5304 15 37.9776 15.4477 37.9776 16C37.9776 16.5523 37.5304 17 36.9788 17H5.9975V37C5.9975 39.7577 8.23699 42 10.9913 42H36.9588C39.7451 42 41.9943 39.7089 41.9527 36.9149L41.9526 36.8981L42.0025 11.0089C41.9775 9.89638 41.0635 9 39.9551 9H34.2222C33.6706 9 33.2235 8.55228 33.2235 8C33.2235 7.44772 33.6706 7 34.2222 7H34.9613C34.9613 5.89228 34.0701 5 32.9638 5Z" fill="currentColor"/>
    </g>
</svg>

<svg xmlns="http://www.w3.org/2000/svg" width="48" height="48" fill="none"><g id="icon" fill="currentColor"><path fill-rule="evenodd" d="M32.277 21.044a1 1 0 0 1 .707.956v8.88H35.1a1 1 0 0 1 0 2h-2.117v3.94a1 1 0 1 1-1.998 0v-3.94h-5.643a.999.999 0 0 1-.828-1.558l6.642-9.88a1 1 0 0 1 1.12-.398m-1.29 9.836v-5.603L27.22 30.88z" clip-rule="evenodd"/><path d="M22.152 22.875c-1.56-3.527-6.582-3.4-7.994.167l-.462 1.185a.998.998 0 1 0 1.861.726l.459-1.177c.766-1.93 3.471-1.982 4.309-.092a2.34 2.34 0 0 1-.215 2.284l-.002.002-7.3 10.53a1.001 1.001 0 0 0 .82 1.57h8.67a1 1 0 0 0 0-2h-6.76l6.21-8.957v-.002a4.34 4.34 0 0 0 .405-4.233z"/><path fill-rule="evenodd" d="M19.001 7h9.968c0-2.212 1.785-4 3.995-4a3.993 3.993 0 0 1 3.995 4h2.996A4.056 4.056 0 0 1 44 10.982v.02l-.05 25.892C44.003 40.796 40.861 44 36.96 44H10.99C7.134 44 4 40.862 4 37V11c0-2.212 1.785-4 3.995-4h3.016c0-2.212 1.786-4 3.995-4a3.993 3.993 0 0 1 3.995 4m13.963-2a1.995 1.995 0 0 0-1.998 2v.8a1 1 0 0 1 0 .4V9c0 1.108.892 2 1.998 2a1 1 0 0 1 0 2 3.993 3.993 0 0 1-3.995-4H16.245a1 1 0 0 1 0-2h.759c0-1.108-.891-2-1.998-2a1.995 1.995 0 0 0-1.997 2v2c0 1.108.89 2 1.997 2a1 1 0 0 1 0 2 3.993 3.993 0 0 1-3.995-4H7.995a1.995 1.995 0 0 0-1.998 2v4H36.98a1 1 0 0 1 0 2H5.998v20c0 2.758 2.239 5 4.993 5H36.96c2.786 0 5.035-2.291 4.994-5.085v-.017l.05-25.89A2.057 2.057 0 0 0 39.954 9h-5.733a1 1 0 0 1 0-2h.74c0-1.108-.892-2-1.998-2" clip-rule="evenodd"/></g></svg>
